app/img/about-theatre__armchair.svg

<svg width="70" height="70" viewBox="0 0 70 70" fill="none" xmlns="http://www.w3.org/2000/svg">
<path d="M27.6673 12.5379H26.7229V11.5936C26.7229 11.0271 26.2637 10.5677 25.697 10.5677C25.1303 10.5677 24.6711 11.0271 24.6711 11.5936V12.5379H23.7267C23.16 12.5379 22.7008 12.9973 22.7008 13.5639C22.7008 14.1304 23.16 14.5898 23.7267 14.5898H24.6711V15.5343C24.6711 16.1008 25.1303 16.5602 25.697 16.5602C26.2637 16.5602 26.7229 16.1008 26.7229 15.5343V14.5898H27.6673C28.234 14.5898 28.6932 14.1304 28.6932 13.5639C28.6932 12.9973 28.234 12.5379 27.6673 12.5379Z" fill="white"/>
<path d="M46.2719 12.5379H45.3276V11.5936C45.3276 11.0271 44.8683 10.5677 44.3016 10.5677C43.7349 10.5677 43.2757 11.0271 43.2757 11.5936V12.5379H42.3314C41.7647 12.5379 41.3054 12.9973 41.3054 13.5639C41.3054 14.1304 41.7647 14.5898 42.3314 14.5898H43.2757V15.5343C43.2757 16.1008 43.7349 16.5602 44.3016 16.5602C44.8683 16.5602 45.3276 16.1008 45.3276 15.5343V14.5898H46.2719C46.8386 14.5898 47.2978 14.1304 47.2978 13.5639C47.2978 12.9973 46.8386 12.5379 46.2719 12.5379Z" fill="white"/>
<path d="M27.6673 26.6295H26.7229V25.6852C26.7229 25.1186 26.2637 24.6592 25.697 24.6592C25.1303 24.6592 24.6711 25.1186 24.6711 25.6852V26.6295H23.7267C23.16 26.6295 22.7008 27.0889 22.7008 27.6555C22.7008 28.222 23.16 28.6814 23.7267 28.6814H24.6711V29.6257C24.6711 30.1923 25.1303 30.6517 25.697 30.6517C26.2637 30.6517 26.7229 30.1923 26.7229 29.6257V28.6814H27.6673C28.234 28.6814 28.6932 28.222 28.6932 27.6555C28.6932 27.0889 28.234 26.6295 27.6673 26.6295Z" fill="white"/>
<path d="M46.2719 26.6295H45.3276V25.6852C45.3276 25.1186 44.8684 24.6592 44.3017 24.6592C43.735 24.6592 43.2757 25.1186 43.2757 25.6852V26.6295H42.3314C41.7647 26.6295 41.3055 27.0889 41.3055 27.6555C41.3055 28.222 41.7647 28.6814 42.3314 28.6814H43.2757V29.6257C43.2757 30.1923 43.735 30.6517 44.3017 30.6517C44.8684 30.6517 45.3276 30.1923 45.3276 29.6257V28.6814H46.2719C46.8386 28.6814 47.2979 28.222 47.2979 27.6555C47.2979 27.0889 46.8386 26.6295 46.2719 26.6295Z" fill="white"/>
<path d="M63.456 29.0518H49.8792C48.7194 29.0518 47.7757 29.9953 47.7757 31.1551V33.9327C47.7757 35.0924 48.7192 36.0359 49.8792 36.0359H50.0764V40.68C49.1632 39.9606 48.0125 39.5297 46.7625 39.5297H22.9675C21.7175 39.5297 20.5669 39.9605 19.6537 40.68V36.026H20.1209C21.2807 36.026 22.2243 35.0825 22.2243 33.9227V31.1451C22.2243 29.9853 21.2808 29.0418 20.1209 29.0418H6.54403C5.38425 29.0418 4.44061 29.9853 4.44061 31.1451V33.9227C4.44061 35.0825 5.38411 36.026 6.54403 36.026H7.0112V49.1205C7.0112 51.2153 8.62462 52.9395 10.674 53.1182V55.1644C10.674 56.7895 11.9962 58.1116 13.6213 58.1116H15.9723V67.9481H14.5034C13.9367 67.9481 13.4775 68.4075 13.4775 68.974C13.4775 69.5406 13.9367 70 14.5034 70H24.7546C25.3213 70 25.7805 69.5406 25.7805 68.974C25.7805 68.4075 25.3213 67.9481 24.7546 67.9481H23.2857V58.1116H46.4446V67.9481H44.9757C44.409 67.9481 43.9498 68.4075 43.9498 68.974C43.9498 69.5406 44.409 70 44.9757 70H55.2271C55.7938 70 56.253 69.5406 56.253 68.974C56.253 68.4075 55.7938 67.9481 55.2271 67.9481H53.758V58.1116H56.1092C57.7342 58.1116 59.0563 56.7895 59.0563 55.1644V53.1182C61.1057 52.9396 62.7191 51.2153 62.7191 49.1205V36.0359H63.4563C64.6161 36.0359 65.5597 35.0924 65.5597 33.9327V31.1551C65.5595 29.9954 64.616 29.0518 63.456 29.0518ZM22.9675 41.5818H46.7626C48.59 41.5818 50.0766 43.0684 50.0766 44.8957V51.0826H19.6536V44.8957C19.6536 43.0684 21.1403 41.5818 22.9675 41.5818ZM6.54403 33.9741C6.51573 33.9741 6.49263 33.951 6.49263 33.9227V31.1451C6.49263 31.1168 6.51573 31.0937 6.54403 31.0937H20.1209C20.1492 31.0937 20.1723 31.1168 20.1723 31.1451V33.9227C20.1723 33.951 20.1492 33.9741 20.1209 33.9741H6.54403ZM11.0251 51.0827C9.94328 51.0826 9.06308 50.2024 9.06308 49.1206V36.0261H17.6017V51.0827H11.0251ZM21.2337 67.9481H18.0243V58.1117H21.2337V67.9481ZM51.7059 67.9481H48.4965V58.1117H51.7059V67.9481ZM57.0041 55.1644C57.0041 55.6581 56.6026 56.0597 56.109 56.0597H13.6213C13.1276 56.0597 12.7259 55.6581 12.7259 55.1644V53.1344H57.0041V55.1644ZM60.667 49.1206C60.667 50.2025 59.7868 51.0826 58.7049 51.0826H52.1285V36.0361H60.667V49.1206ZM63.5076 33.9328C63.5076 33.9611 63.4845 33.9842 63.4562 33.9842H49.8793C49.851 33.9842 49.8279 33.9611 49.8279 33.9328V31.1552C49.8279 31.1269 49.851 31.1038 49.8793 31.1038H63.4562C63.4845 31.1038 63.5076 31.1269 63.5076 31.1552V33.9328Z" fill="white"/>
<path d="M57.6956 8.45511C57.6959 3.793 53.9029 0 49.2408 0H20.4864C15.8242 0 12.0313 3.793 12.0313 8.45511V25.269C12.0314 25.8357 12.4907 26.2949 13.0574 26.2949C13.6241 26.2949 14.0833 25.8355 14.0833 25.269V8.45511C14.0833 4.92435 16.9558 2.05188 20.4864 2.05188H49.2406C52.7712 2.05188 55.6437 4.92435 55.6437 8.4599L55.7232 25.2737C55.7259 25.8387 56.1846 26.2949 56.749 26.2949C56.7506 26.2949 56.7522 26.2949 56.7539 26.2949C57.3206 26.2922 57.7778 25.8307 57.775 25.264L57.6956 8.45511Z" fill="white"/>
</svg>

<svg width="70" height="70" fill="none" xmlns="http://www.w3.org/2000/svg"><path d="M27.667 12.538h-.944v-.944a1.026 1.026 0 10-2.052 0v.944h-.944a1.026 1.026 0 000 2.052h.944v.944a1.026 1.026 0 102.052 0v-.944h.944a1.026 1.026 0 100-2.052zM46.272 12.538h-.944v-.944a1.026 1.026 0 00-2.052 0v.944h-.945a1.026 1.026 0 100 2.052h.945v.944a1.026 1.026 0 102.052 0v-.944h.944a1.026 1.026 0 100-2.052zM27.667 26.63h-.944v-.945a1.026 1.026 0 10-2.052 0v.945h-.944a1.026 1.026 0 000 2.051h.944v.945a1.026 1.026 0 102.052 0v-.945h.944a1.026 1.026 0 100-2.052zM46.272 26.63h-.944v-.945a1.026 1.026 0 10-2.052 0v.945h-.945a1.026 1.026 0 000 2.051h.945v.945a1.026 1.026 0 102.052 0v-.945h.944a1.026 1.026 0 100-2.052z" fill="#fff"/><path d="M63.456 29.052H49.879c-1.16 0-2.103.943-2.103 2.103v2.778c0 1.16.943 2.103 2.103 2.103h.197v4.644a5.338 5.338 0 00-3.313-1.15H22.968c-1.25 0-2.401.43-3.314 1.15v-4.654h.467c1.16 0 2.103-.944 2.103-2.103v-2.778c0-1.16-.943-2.103-2.103-2.103H6.544c-1.16 0-2.103.943-2.103 2.103v2.778c0 1.16.943 2.103 2.103 2.103h.467V49.12a4.019 4.019 0 003.663 3.998v2.046a2.95 2.95 0 002.947 2.948h2.351v9.836h-1.469a1.026 1.026 0 100 2.052h10.252a1.026 1.026 0 000-2.052h-1.47v-9.836h23.16v9.836h-1.47a1.026 1.026 0 100 2.052h10.252a1.026 1.026 0 000-2.052h-1.469v-9.836h2.351a2.95 2.95 0 002.947-2.948v-2.046a4.019 4.019 0 003.663-3.998V36.037h.737c1.16 0 2.104-.944 2.104-2.103v-2.778c0-1.16-.944-2.103-2.104-2.103zm-40.489 12.53h23.796a3.318 3.318 0 013.314 3.314v6.187H19.654v-6.187a3.318 3.318 0 013.314-3.314zM6.545 33.974a.052.052 0 01-.051-.051v-2.778c0-.028.023-.051.051-.051h13.577c.028 0 .051.023.051.051v2.778a.052.052 0 01-.051.051H6.544zm4.481 17.109a1.964 1.964 0 01-1.962-1.962V36.026h8.539v15.057h-6.577zm10.209 16.865h-3.21v-9.836h3.21v9.836zm30.472 0h-3.21v-9.836h3.21v9.836zm5.298-12.784a.896.896 0 01-.895.896H13.621a.896.896 0 01-.895-.896v-2.03h44.278v2.03zm3.663-6.043c0 1.081-.88 1.962-1.962 1.962h-6.576V36.036h8.538v13.085zm2.84-15.188a.052.052 0 01-.05.051H49.878a.052.052 0 01-.051-.051v-2.778c0-.028.023-.051.051-.051h13.577c.028 0 .052.023.052.051v2.778zM57.696 8.455C57.696 3.793 53.903 0 49.24 0H20.486c-4.662 0-8.455 3.793-8.455 8.455V25.27a1.026 1.026 0 002.052 0V8.455a6.41 6.41 0 016.403-6.403h28.755c3.53 0 6.403 2.872 6.403 6.408l.08 16.814a1.026 1.026 0 001.025 1.02h.005a1.026 1.026 0 001.021-1.03l-.08-16.809z" fill="#fff"/></svg>
